X: 1
T: the Hag at the Churn
L: 1/8
M: 6/8
N: Malcolm Downie's version
S: Roaring Jelly collection
C: Trad Irish
R: jig
K: Dmix
|::: "D"A2G ADD | "D"A2G "Am"Adc | "D"A2G ADD | "C"EFG EFG :::|
|::: "D"AdB "C"c3  | "D"Add "C"efg |1,3 "D"AdB "C"c3  | "Em"GEG "Am"AED \
                                  :|2,4 "D"age dcA | "Am"GEG "D"AED :|
